X: 34266
T: Reilly Of The White Hill
R: reel
M: 4/4
K: Dmajor
Agfe d3 A|BddB AFDF|GFGB AFDF|EA,CE DEFG|
Agfe d3 A|BddB AFDF|GFGB AFDF|1 EDCE D2 FG:|2 EDCE D3 g||
|:fdAd fgaf|bged cdeg|fdAd fgaf|bgeg fdde|
fgfe dfaf|gfed cdec|dcdA BdAF|1 E3 F D3 g:|2 E3 F DEFG||

